X:1
T:Sleeping Beauty Duet (Waltz)
T:Sleeping Beauty Duet (Waltz)
T:Arr. Rachmaninoff, Leon Manjyoume
T:Tchaikovsky
C:Tchaikovsky
%%score { 1 | 2 } { 3 | 4 }
L:1/8
Q:1/4=230
M:3/4
K:Bb
V:1 treble nm="Piano" snm="Pno."
V:2 treble 
V:3 bass nm="Piano" snm="Pno."
V:4 bass 
V:1
 b3 f ga | b3 f ga | b3 f ga | b2 _a2 g2 | c'3 g a=b | c'3 g a=b | c'3 g a=b | c'2 b2 a2 | %8
 d'3 a =b_d' | d'a af z2 | e'3 b c'd' | e'b bg z2 | =e'3 =b c'd' | =e'3 =b c'd' | =e'3 =b c'd' | %15
 =e'3 c' d'e' | f'c' c'a af | f'=b b_a af | f'b bg gf | f'c' c'a af | f'c' c'a af | f'=b b_a af | %22
 f'b bg gf | f'c' c'a af | f'=b b_a af | f'c' c'a af | f'=b b_a af | f'c' c'a af | c'a af z2 | %29
 af fc z2 | fc cA z2 | cA AF z2 | z A Ac cf | fa ac' c'f' | f'2 [b_d'f']2 [gbf']2 | [ac'f']2 z4 | %36
 z6 | z6 | z6 | z6 | z6 | B6 | A6 | B4 G z | A2 B2 G z | A4 c2 | d4 =B z | c6- | c6 | f6 | =e6 | %51
 e4 c z | e2 d2 c z | g4 f z | e4 d z | d2 c2 =B2 | c z G2 A2 | B6 | A6 | B4 G z | A2 B2 G z | %61
 A4 c z | c4 =B z | c6- | c6 | d4 e2- | e2 =e4 | g4 f2- | f2 a4 | b4 a2- | a2 g4 | f2 =ef ag | %72
 f d3 z2 | z2 f4 | g4 a2 | b2 _d=d ed | f z =Bc dc | d z AB cB | dc BA BG | F z =ef gf | %80
 ag f=e f_d | d z f4 | g4 a2 | b2 _d=d ed | f z =Bc dc | d z AB cB | dc BA GF | z2 e=e fe | %88
 ag f=e dc | f z f4 | g4 a2 | b2 _d=d ed | f z =Bc dc | d z AB cB | dc BA BG | F z =ef gf | %96
 ag f=e f_d | d z f4 | g4 a2 | b2!mf! _d=d ed | f z =Bc dc | d z AB cB | dc BA GF | z2 e=e fe | %104
 ag f=e dc | fe dc dc | BA BA GF | AG F z z2 |"^Lightly\n" z6 | z f d'f' [d'f']f | %110
 z f d'f' [d'f']f | z f d'f' [d'f']f | z f d'f' [d'f']f | z f e'f' [e'f']f | z f e'f' [e'f']f | %115
 z f e'f' [e'f']f | z f e'f' [e'f']f | z a c'a' [c'a']a | z g c'g' [c'g']g | z ^f c'^f' [e'f']f | %120
 z f e'f' [e'f']f | z f d'f' [d'f']f | z f bf' [bf']f | z f e'f' [e'f']f | z f e'f' [e'f']f | %125
 z f d'f' [d'f']f | z f d'f' [d'f']f | z f d'f' [d'f']f | z f d'f' [d'f']f | z g c'g' [c'g']g | %130
 z g d'g' [d'g']g | [gc'g'] z z4 |!f! G^F G=B ce | ^f4 g2- | g2 a4 | c'4 b2- | b2 d'4 | e'4 d'2- | %138
 d'2 c'4 |!mf! b2 ab fd | z6 | z6 | z6 | z6 |!mf! z4 b2 | f'4 b2 | z4 b2 | e'4 b2 | z4 g2 | %149
 b2 f2 c'2 | b2 f2 c'2 | b2 ^f2 g2 | d2 e2 b2 | f'4 b2 | z4 b2 | e'4 b2 | z4 b2 | d'2 c'2 b2 | %158
 a2 e'2 d'2 | g2 z4 | z4 ab | f'4 b2 | z4 b2 | e'4 b2 | z4 g2 | b2 f2 c'2 | b2 g2 c'2 | b2 ^f2 g2 | %168
 d2 e2 b2 | f'4 b2 | z4 b2 | e'4 b2 | z4!f! B2 | c2 B2 A2 | G2 A2 B2 | c2 B2 A2 | %176
 d2 !breath!e2!mf! F/GA/ | B6 | A6 | B4 G z | A2 B2 G z | A4 c2 | d4 =B z | c6- | c6 | f6 | =e6 | %187
 e4 c z | e2 d2 c z | g4 f z | e4 d z | d2 c2 =B2 | c z G2 A2 | B6 | A6 | B4 G z | A2 B2 G z | %197
 A4 c z | c4 =B z | c6- | c6 | d4 e2- | e2 =e4 | g4 f2- | f2 a4 | b4 a2- | a2 g4 | f2 =ef ag | %208
 f d3 z2 | z2 f4 | g4 a2 | b2 _d=d ed | f z =Bc dc | d z AB cB | dc BA BG | F z =ef gf | %216
 ag f=e f_d | d z f4 | g4 a2 | b2 _d=d ed | f z =Bc dc | d z AB cB | dc BA GF | z2 e=e fe | %224
 ag f=e dc | f z f4 | g4 a2 | b2 _d=d ed | f z =Bc dc | d z AB cB | dc BA BG | F z =ef gf | %232
 ag f=e f_d | d z f4 | g4 a2 | b2 _d=d ed | f z =Bc dc | d z AB cB | dc BA GF | z2 e=e fe | %240
 ag f=e dc | fe dc dc | BA BA GF | AG F z z2 | z6 | z f d'f' [d'f']f | z f d'f' [d'f']f | %247
 z f d'f' [d'f']f | z f d'f' [d'f']f | z f e'f' [e'f']f | z f e'f' [e'f']f | z f e'f' [e'f']f | %252
 z f e'f' [e'f']f | z a c'a' [c'a']a | z g c'g' [c'g']g | z ^f c'^f' [e'f']f | z f e'f' [e'f']f | %257
 z f d'f' [d'f']f | z f bf' [bf']f | z f e'f' [e'f']f | z f e'f' [e'f']f | z f d'f' [d'f']f | %262
 z f d'f' [d'f']f | z f d'f' [d'f']f | z f d'f' [d'f']f | z g c'g' [c'g']g | z g d'g' [d'g']g | %267
 [gc'g'] z z4 | G^F G=B ce | ^f4 g2- | g2 a4 | c'4 b2- | b2 d'4 | e'4 d'2- | d'2 g4 | ^f4 g2- | %276
 g2 c'4 | d'4 c'2- | c'2 f4 | =e4 f2- | f2 ^f4 | g4 a2- | a2 b4 | [_d_d']4 [=d=d']2- | %284
 [dd']2 [gg']4 | [ff']4 [ee']2- | [ee']2 [dd']4 | b2 _d=d =ef | ab d'4 | b2 _d=d =ef | ab d'4 | %291
 b2 [ad']2 b2 | [ad']2 b2 [ad']2 | b2 [ad']2 b2 | [ad']2 b2 [ad']2 | b4 z2 | [bb']4 z2 | %297
[M:6/4] z12 |] %298
V:2
!f! B3 F GA | B3 F GA | B3 F GA | B2 _A2 G2 | c3 G A=B | c3 G A=B | c3 G A=B | c2 B2 A2 | %8
 d3 A =B_d | d4 fd | e3 B cd | e4 ge | =e3 =B cd | =e3 =B cd | =e3 =B cd | =e3 c de | %16
 f2 [Ac] z [Ac] z | F2 [_A=B] z [AB] z | F2 [GB] z [GB] z | F2 [Ac] z [Ac] z | F2 [Ac] z [Ac] z | %21
 F2 [_A=B] z [AB] z | F2 [GB] z [GB] z | F2 [Ac] z [Ac] z | F2 [_A=B] z [AB] z | F2 [Ac] z [Ac] z | %26
 F2 [_A=B] z [AB] z | F2 [Ac] z [Ac] z | z4 fc | A4 cA | F4 AF | C4 FC | F2 F2 F2 | %33
 [FAc]2 [FAc]2 [FAc]2 | F2 [B_df]2 [GBf]2 | [Acf]2 z4 |!mf! z6 | z2 [DF] z [DF] z | %38
 z2 [DF] z [DF] z | z2 [DF] z [DF] z | z2 [DF] z [DF] z | z2 [DF] z [DF] z | z2 [DF] z [DF] z | %43
 z2 [DF] z [DF] z | z2 [DF] z [DF] z | z2 [EF] z [EF] z | z2 [EF] z [EF] z | z2 [EF] z [EF] z | %48
 z2 [EF] z [EF] z | z2 [Ac] z [Ac] z | z2 [Gc] z [Gc] z | z2 [^Fc] z F z | z2 [EF] z [EF] z | %53
 z2 [Bd] z [Bd] z | z2 [FB] z [FB] z | z2 [EF] z [EF] z | z2 [EF] z [EF] z | z2 [DF] z [DF] z | %58
 z2 [DF] z [DF] z | z2 [DF] z [DF] z | z2 [DF] z [DF] z | z2 F z [FA] z | z2 [F_A] z [FA] z | %63
 z2 [FA] z [FA] z | z2 [FA] z [FA] z | D4 E2- | E2 =E4 | G4 F2- | F2 A4 | B4 A2- | A2 G4 | %71
 F2!>(! z4!>)! | z2 cd cA | F!f! z!<(! F4!<)! | G4 A2 |!ff! B2!mf! z4 | c2 z4 | [FB]2 z4 | %78
 F z F z _D z | C z =EF GF | AG F=E F z | [FB] z!f!!<(! F4!<)! | G4 A2 |!ff! B2!mf! z4 | c2 z4 | %85
 [FB]2 z4 | z2 D z D z | [C=E]2 _E=E FE | AG F=E z2 | F z!f!!<(! F4!<)! | G4 A2 |!ff! B2!mf! z4 | %92
 c2 z4 | [FB]2 z4 | F z F z _D z | C z =EF GF | AG F=E F z | [FB] z!f!!<(! F4!<)! | G4 A2 | %99
!ff! B2 z4 | c2 z4 | [FB]2 z4 | z2 D z D z | [C=E]2 _E=E FE | AG F=E z2 | F z z4 | z6 | z3 E GF | %108
 ED FE z2 |!mp! z2 [DFd] z [DFd] z | z2 [DFd] z [DFd] z | z2 [DFd] z [DFd] z | z2 [DFd] z [DFd] z | %113
 z2 [EFe] z [EFe] z | z2 [EFe] z [EFe] z | z2 [EFe] z [EFe] z | z2 [EFe] z [EFe] z | %117
 z2 [Ac] z [Ac] z | z2 [Gc] z [Gc] z | z2 [^Fc] z [Fc] z | z2 [Fe] z [Fe] z | z2 [Bd] z [Bd] z | %122
 z2 [FB] z [FB] z | z2 [EFe] z [EFe] z | z2 [EFe] z [EFe] z | z2 [DFd] z [DFd] z | %126
 z2 [DFd] z [DFd] z | z2 [DFd] z [DFd] z | z2 [DFd] z [DFd] z | z2 [EGe] z [EGe] z | %130
 z2 [Fd] z [Fd] z |!mf! [Ge] z z4 | z6 | ^F4 G2- | G2 A4 | c4 B2- | B2 d4 | e4 d2- | d2 c4 | %139
 B2 z4 | z6 | z6 | z6 | z6 | z6 | z4 B2 | f4 B2 | z4 B2 | e4 B2 | z4 c2 | B4 c2 | B4 z2 | z6 | %153
 z4 B2 | f4 B2 | z4 B2 | e4 B2 | d2 c2 B2 | A2 e2 d2 | G2 z4 | z d ^f g3 | z4 B2 | f4 B2 | z4 B2 | %164
 e4 B2 | z4 c2 | B4 c2 | B4 z2 | z6 | z4 B2 | f4 B2 | z4 B2 | e6 | z2 [EG] z [EG] z | %174
 z2 [EG] z [EG] z | z2 [EG] z [EG] z | [^FA]2 [=FA]2 z2 | z2 [DF] z [DF] z | z2 [DF] z [DF] z | %179
 z2 [DF] z [DF] z | z2 [DF] z [DF] z | z2 [EF] z [EF] z | z2 [EF] z [EF] z | z2 [EF] z [EF] z | %184
 z2 [EF] z [EF] z | z2 [Ac] z [Ac] z | z2 [Ac] z [Ac] z | z2 [^Fc] z =F z | z2 [EF] z [EF] z | %189
 z2 [Bd] z [Bd] z | z2 [FB] z [FB] z | z2 [EF] z [EF] z | z2 [EF] z [EF] z | z2 [DF] z [DF] z | %194
 z2 [DF] z [DF] z | z2 [DF] z [DF] z | z2 [DF] z [DF] z | z2 F z [FA] z | z2 [F_A] z [FA] z | %199
 z2 [FA] z [FA] z | z2 [FA] z [FA] z | D4 E2- | E2 =E4 | G4 F2- | F2 A4 | B4 A2- | A2 G4 | F2 z4 | %208
 z2 cd cA | F z F4 | G4 A2 | B2 z4 | c2 z4 | [FB]2 z4 | F z F z _D z | C z =EF GF | AG F=E F z | %217
 [FB] z F4 | G4 A2 | B2 z4 | c2 z4 | [FB]2 z4 | z2 D z D z | [C=E]2 _E=E FE | AG F=E z2 | F z F4 | %226
 G4 A2 | B2 z4 | c2 z4 | [FB]2 z4 | F z F z _D z | C z =EF GF | AG F=E F z | [FB] z F4 | G4 A2 | %235
 B2 z4 | c2 z4 | [FB]2 z4 | z2 D z D z | [C=E]2 _E=E FE | AG F=E z2 | F z z4 | z6 | z3 E GF | %244
 ED FE z2 | z2 [DFd] z [DFd] z | z2 [DFd] z [DFd] z | z2 [DFd] z [DFd] z | z2 [DFd] z [DFd] z | %249
 z2 [EFe] z [EFe] z | z2 [EFe] z [EFe] z | z2 [EFe] z [EFe] z | z2 [EFe] z [EFe] z | %253
 z2 [Ac] z [Ac] z | z2 [Gc] z [Gc] z | z2 [^Fc] z [Fc] z | z2 [Fe] z [Fe] z | z2 [Bd] z [Bd] z | %258
 z2 [FB] z [FB] z | z2 [EFe] z [EFe] z | z2 [EFe] z [EFe] z | z2 [DFd] z [DFd] z | %262
 z2 [DFd] z [DFd] z | z2 [DFd] z [DFd] z | z2 [DFd] z [DFd] z | z2 [EGe] z [EGe] z | %266
 z2 [Fd] z [Fd] z | [Ge] z z4 | z6 | ^F4 G2- | G2 A4 | c4 B2- | B2 d4 | e4 d2- | d2 G4 | ^F4 G2- | %276
 G2 c4 | d4 c2- | c2 F4 | =E4 F2- | F2 ^F4 | G4 A2- | A2 B4 | _D4 =D2- | D2 G4 | F4 E2- | E2 D4 | %287
 B2 z4 | AB d4 | B2 z4 | AB d4 | B2 [Ad]2 B2 | [Ad]2 B2 [Ad]2 | B2 [Ad]2 B2 | [Ad]2 B2 [Ad]2 | %295
 B4 z2 | [Bdf]4 z2 |[M:6/4] z12 |] %298
V:3
 z2 [F,B,D]4- | [F,B,D]2 [F,B,D]4- | [F,B,D]2 [F,B,D]4- | [F,B,D]2 [F,B,D] z [F,=B,D] z | %4
 z2 [G,CE]4- | [G,CE]2 [G,CE]4- | [G,CE]2 [G,CE]4- | [G,CE]2 [G,CE] z [G,_D=E] z | z2 [F,A,DF]4- | %9
 [F,A,DF]2 [F,A,DF]4 | z2 [G,B,EG]4- | [G,B,EG]2 [G,B,EG]4 | z2 [B,C=EB]4- | [B,CEB]2 [B,C=EB]4- | %14
 [B,CEB]2 [B,C=EB]4- | [B,CEB]2 [B,C=EB]4 | F,2 !>!E4 | F,2 !>!D4 | F,2 !>!_D4 | C2 A,2 F,2 | %20
 F,2 !>!E4 | F,2 !>!D4 | F,2 !>!_D4 | C2 A,2 F,2 | _D2 _A,2 F,2 | C2 A,2 F,2 | _D2 _A,2 F,2 | %27
 C2 A,2 F,2 | z4 [A,CF]2 | z4 [F,A,C]2 | z4 [C,F,A,]2 | z4 [C,F,A,]2 | z2 [F,A,C]2 [F,A,C]2 | %33
 [F,A,C]2 [F,A,C]2 [F,A,C]2 | [F,A,C]2 [F,B,_D]2 [F,G,B,]2 | [F,A,C]2 z4 | z6 | z2 F, z F, z | %38
 z2 F, z F, z | z2 F, z F, z | z2 F, z F, z | B,6 | A,6 | B,4 G, z | A,2 B,2 G, z | A,4 C2 | %46
 D4 =B, z | C6- | C6 | F6 | =E6 | E4 C z | E2 D2 C z | G4 F z | E4 D z | D2 C2 =B,2 | C z G,2 A,2 | %57
 B,6 | A,6 | B,4 G, z | A,2 B,2 G, z | A,4 C z | C4 =B, z | C6- | C6 | z2 [^F,A,C] z [F,A,C] z | %66
 z2 [G,B,C] z [G,B,C] z | z2 [F,A,C] z [F,A,C] z | z2 [F,A,C] z [F,A,C] z | %69
 z2 [F,B,D] z [F,B,D] z | z2 [=E,B,C] z [E,B,C] z | [F,A,C] z z4 | z6 | z2 F,4 | [F,F]4 [F,E]2 | %75
 [F,D]2 _D=D ED | F z =B,C DC | D z A,B, CB, | DC B,A, B,G, | A, z z4 | E z E z E_D | D z F,4 | %82
 [F,F]4 [F,E]2 | [F,D]2 _D=D ED | F z =B,C DC | D z A,B, CB, | DC B,A, G,F, | =E, z z4 | %88
 [B,C] z [B,C] z [B,D]C | [A,C]2 F,4 | [F,F]4 [F,E]2 | [F,D]2 _D=D ED | F z =B,C DC | %93
 D z A,B, CB, | DC B,A, B,G, | A, z z4 | E z E z E_D | D z F,4 | [F,F]4 [F,E]2 | %99
 [F,D]2!mf! _D=D ED | F z =B,C DC | D z A,B, CB, | DC B,A, G,F, | =E, z z4 | %104
 [B,C] z [B,C] z [B,D]C | [A,C] z z2 A,,2 | B,,2 C,2 D,2 | E,2 F,2 G,2 | A,2 B,2 DC | B,6 | A,6 | %111
 B,4 G,2 | A,2 B,2 G,2 | A,4 C2 | D4 =B,2 | C6- | C6 | F6 | =E6 | E4 C2 | E2 D2 C2 | G4 F2 | %122
 E4 D2 | D2 C2 =B,2 | C2 G,2 A,2 | B,6 | A,6 | B,4 G,2 | A,2 B,2 =B,2 | C4 A,2 | D4 =B,2 | %131
 [G,E] z G,=B, CE |!f! G,^F, G,=B, CE | z2 [G,CE] z z2 | [G,B,_D] z z2 [G,B,D] z | %135
 z2 [F,B,D] z z2 | [F,B,D] z z2 [G,=B,D] z | z2 [G,CE] z z2 | [F,A,D] z z2 [F,A,E] z | %139
 [F,B,D] z!mf! z4 | B2 AB FD | z2 AB FD | z2 AB GE | z2 AB G=E | z2 AB _AF |!mp! z2 BA _AF | %146
 z2 B_A GE | z2 B_A GE | z2 B_A GE | z2 BA _AF | z2 BA _AF | z2 B_A GE | z2 B_A GE | z2 BA _AF | %154
 z2 BA _AF | z2 B_A GE | z2 B_A GE | B,2 AB GD | C2 =Bc ^FD | z2 AB GD | z2 AB GD | z2 BA _AF | %162
 z2 BA _AF | z2 B_A GE | z2 B_A GE | z2 BA _AF | z2 BA _AF | z2 B_A GE | z2 B_A GE | z2 BA _AF | %170
 z2 BA _AF | z2 B_A GE | z4!f! B,2 | C2 B,2 A,2 | G,2 A,2 B,2 | C2 B,2 A,2 | %176
 D2 !breath!E2!mf! F,/G,A,/ | B,6 | A,6 | B,4 G, z | A,2 B,2 G, z | A,4 C2 | D4 =B, z | C6- | C6 | %185
 F6 | =E6 | E4 C z | E2 D2 C z | G4 F z | E4 D z | D2 C2 =B,2 | C z G,2 A,2 | B,6 | A,6 | %195
 B,4 G, z | A,2 B,2 G, z | A,4 C z | C4 =B, z | C6- | C6 | z2 [^F,A,C] z [F,A,C] z | %202
 z2 [G,B,C] z [G,B,C] z | z2 [F,A,C] z [F,A,C] z | z2 [F,A,C] z [F,A,C] z | %205
 z2 [F,B,D] z [F,B,D] z | z2 [=E,B,C] z [E,B,C] z | [F,A,C] z z4 | z6 | z2 F,4 | [F,F]4 [F,E]2 | %211
 [F,D]2 _D=D ED | F z =B,C DC | D z A,B, CB, | DC B,A, B,G, | A, z z4 | E z E z E_D | D z F,4 | %218
 [F,F]4 [F,E]2 | [F,D]2 _D=D ED | F z =B,C DC | D z A,B, CB, | DC B,A, G,F, | =E, z z4 | %224
 [B,C] z [B,C] z [B,D]C | [A,C]2 F,4 | [F,F]4 [F,E]2 | [F,D]2 _D=D ED | F z =B,C DC | %229
 D z A,B, CB, | DC B,A, B,G, | A, z z4 | E z E z E_D | D z F,4 | [F,F]4 [F,E]2 | [F,D]2 _D=D ED | %236
 F z =B,C DC | D z A,B, CB, | DC B,A, G,F, | =E, z z4 | [B,C] z [B,C] z [B,D]C | [A,C] z z2 A,,2 | %242
 B,,2 C,2 D,2 | E,2 F,2 G,2 | A,2 B,2 DC | B,6 | A,6 | B,4 G,2 | A,2 B,2 G,2 | A,4 C2 | D4 =B,2 | %251
 C6- | C6 | F6 | =E6 | E4 C2 | E2 D2 C2 | G4 F2 | E4 D2 | D2 C2 =B,2 | C2 G,2 A,2 | B,6 | A,6 | %263
 B,4 G,2 | A,2 B,2 =B,2 | C4 A,2 | D4 =B,2 | [G,E] z G,=B, CE | G,^F, G,=B, CE | z2 [G,CE] z z2 | %270
 [G,B,_D] z z2 [G,B,D] z | z2 [F,B,D] z z2 | [F,B,D] z z2 [F,B,D] z | z2 [G,=B,D] z z2 | %274
 [G,=B,D] z z2 [G,B,D] z | z2 [G,C] z z2 | [G,=B,F] z z2 [G,CE] z | z2 [F,A,E] z z2 | %278
 [F,A,E] z z2 [F,A,C] z | z2 [_A,B,] z z2 | [_A,B,D] z z2 [A,B,] z | z2 [G,B,E] z z2 | %282
 [G,B,_D] z z2 [G,B,D] z | z2 [F,B,] z z2 | [F,B,] z z2 [G,=B,D] z | z2 [G,C] z z2 | %286
 [G,C] z z2 [E,A,] z | [D,F,B,] z _D=D =EF | z4 [F,A,E]2 | [D,F,B,]2 _D=D =EF | z4 [F,A,E]2 | %291
 [F,D]2 [F,E]2 [F,D]2 | [F,E]2 [F,D]2 [F,E]2 | [F,D]2 [F,E]2 [F,D]2 | [F,E]2 [F,D]2 [F,E]2 | %295
 [F,D]4 z2 | [DF]4 z2 |[M:6/4] B,4 z8 |] %298
V:4
!mf! [F,,,F,,]2 z4 | [F,,,F,,]2 z4 | [F,,,F,,]2 z4 | [F,,,F,,]2 z4 | [F,,,F,,]2 z4 | %5
 [F,,,F,,]2 z4 | [F,,,F,,]2 z4 | [F,,,F,,]2 z4 | [F,,,F,,]2 z4 | z6 | [F,,,F,,]2 z4 | z6 | %12
 [F,,,F,,]2 z4 | [F,,,F,,]2 z4 | [F,,,F,,]2 z4 | [F,,,F,,]2 z4 | [F,,,F,,]2 E,4 | [F,,,F,,]2 D,4 | %18
 [F,,,F,,]2 _D,4 | C,2 A,,2 F,,2 | [F,,,F,,]2 !>!E,4 | [F,,,F,,]2 !>!D,4 | [F,,,F,,]2 !>!_D,4 | %23
 C,2 A,,2 F,,2 | _D,2 _A,,2 F,,2 | C,2 A,,2 F,,2 | _D,2 _A,,2 F,,2 | C,2 A,,2 F,,2 | %28
 z4 [F,,,F,,]2 | z4 [F,,,F,,]2 | z4 [F,,,F,,]2 | z4 [F,,,F,,]2 | z2 [F,,,F,,]2 [F,,,F,,]2 | %33
 [F,,,F,,]2 [F,,,F,,]2 [F,,,F,,]2 | [F,,,F,,]2 [F,,,F,,]2 [F,,,F,,]2 | [F,,,F,,]2 z4 |!mp! z6 | %37
 [B,,,B,,] z z4 | [A,,,F,,] z z4 | [B,,,B,,] z z4 | [A,,,F,,] z z4 | [B,,,B,,] z z4 | %42
 [F,,,F,,] z z4 | [B,,,B,,] z z4 | [F,,,F,,] z z4 | [C,,C,] z z4 | [A,,,A,,] z z4 | %47
 [_A,,,_A,,] z z4 | [A,,,A,,] z z4 | [F,,,F,,] z z4 | [G,,,G,,] z z4 | [_A,,,_A,,] z z4 | %52
 [A,,,A,,] z z4 | [B,,,B,,] z z4 | [F,,,F,,] z z4 | [A,,,A,,] z z4 | [F,,,F,,] z z4 | %57
 [B,,,B,,] z z4 | [F,,,F,,] z z4 | [B,,,B,,] z z4 | [D,,D,] z z4 | [C,,C,] z z4 | %62
 [D,,D,] z z2 [_D,,_D,] z | [C,,C,] z z4 | [C,,C,] z z4 | [C,,C,] z z4 | [C,,C,] z z4 | %67
 [C,,C,] z z4 | [C,,C,] z z4 | [C,,C,] z z4 | [C,,C,] z z4 | F,, z z4 | z6 | %73
!f!!<(! z4 [D,,D,]2-!<)! | [D,,D,]2 [_D,,_D,]2 [C,,C,]2 |!ff! [B,,,B,,]2!mf! z4 | [A,,F,]2 z4 | %77
 [B,,F,]2 z4 | [B,,,B,,] z [D,,D,] z [=E,,=E,] z | [F,,F,] z z4 | [F,,F,] z [G,,G,] z [A,,A,] z | %81
 [B,,B,] z!f!!<(! z2 [D,,D,]2-!<)! | [D,,D,]2 [_D,,_D,]2 [C,,C,]2 |!ff! [B,,,B,,]2!mf! z4 | %84
 [A,,F,]2 z4 | [B,,F,]2 z4 | [B,,,B,,] z [G,,,G,,] z [B,,,B,,] z | [C,,C,] z z4 | %88
 [C,,C,] z [D,,D,] z [=E,,=E,] z | [F,,F,] z!f!!<(! z2 [D,,D,]2-!<)! | %90
 [D,,D,]2 [_D,,_D,]2 [C,,C,]2 |!ff! [B,,,B,,]2!mf! z4 | [A,,F,]2 z4 | [B,,F,]2 z4 | %94
 [B,,,B,,] z [D,,D,] z [=E,,=E,] z | [F,,F,] z z4 | [F,,F,] z [G,,G,] z [A,,A,] z | %97
 [B,,B,] z!f!!<(! z2 [D,,D,]2-!<)! | [D,,D,]2 [_D,,_D,]2 [C,,C,]2 |!ff! [B,,,B,,]2 z4 | %100
 [A,,F,]2 z4 | [B,,F,]2 z4 | [B,,,B,,] z [G,,,G,,] z [B,,,B,,] z | [C,,C,] z z4 | %104
 [C,,C,] z [D,,D,] z [=E,,=E,] z | [F,,F,] z z2 F,,2 | G,,2 A,,2 B,,2 | C,2 D,2 E,2 | F,2 G,2 A,2 | %109
!mf! [B,,,B,,] z z4 | [F,,,F,,] z z4 | [B,,,B,,] z z4 | [F,,,F,,] z z4 | [C,,C,] z z4 | %114
 [A,,,A,,] z z4 | [_A,,,_A,,] z z4 | [A,,,A,,] z z4 | [F,,,F,,] z z4 | [G,,,G,,] z z4 | %119
 [_A,,,_A,,] z z4 | [A,,,A,,] z z4 | [B,,,B,,] z z4 | [F,,,F,,] z z4 | [A,,,A,,] z z4 | %124
 [F,,,F,,] z z4 | [B,,,B,,] z z4 | [F,,,F,,] z z4 | [B,,,B,,] z z4 | [D,,D,] z z4 | [E,,E,] z z4 | %130
 [D,,D,] z z4 |!mf! [C,,C,] z z4 | z6 | z2 [E,,,E,,] z z2 | [=E,,,=E,,] z z2 [E,,,E,,] z | %135
 z2 [F,,,F,,] z z2 | [F,,,F,,] z z2 [F,,,F,,] z | z2 [F,,,F,,] z z2 | [F,,,F,,] z z2 [F,,,F,,] z | %139
 [B,,,B,,] z z4 | [B,,D,F,B,]2 z4 | [B,,D,F,B,]2 z4 |"_dim." [C,E,G,B,]2 z4 | [_D,=E,G,B,]2 z4 | %144
 [D,F,B,]2 z4 | [D,B,]2 [_A,B,] z [A,B,] z | [B,,B,]2 [_A,B,] z [A,B,] z | %147
 [E,B,]2 [G,B,] z [G,B,] z | [B,,B,]2 [G,B,] z [G,B,] z | [D,B,]2 [_A,B,] z [A,B,] z | %150
 [D,B,]2 [_A,B,] z [A,B,] z | [B,,B,]2 [G,B,] z [G,B,] z | [B,,B,]2 [G,B,] z [G,B,] z | %153
 [D,B,]2 [_A,B,] z [A,B,] z | [D,B,]2 [_A,B,] z [A,B,] z | [B,,B,]2 [G,B,] z [G,B,] z | %156
 [B,,B,]2 [G,_D] z G, z | [D,,D,]2 [B,D] z [B,D] z | [D,,D,]2 [^F,C] z [D,C] z | %159
 [G,,B,]2 [G,D] z [G,B,] z | [G,B,]2 [B,D] z [G,B,] z | [D,B,]2 [_A,B,] z [A,B,] z | %162
 [B,,B,]2 [_A,B,] z [A,B,] z | [E,B,]2 [G,B,] z [G,B,] z | [B,,B,]2 [G,B,] z [G,B,] z | %165
 [D,B,]2 [_A,B,] z [A,B,] z | [B,,B,]2 [_A,B,] z [A,B,] z | [E,B,]2 [G,B,] z [G,B,] z | %168
 [B,,B,]2 [G,B,] z [G,B,] z | [D,B,]2 [_A,B,] z [A,B,] z | [B,,B,]2 [_A,B,] z [A,B,] z | %171
 [E,B,]2 [G,B,] z [G,B,] z | [B,,B,]2 [E,G,] z [E,G,] z | E,2 G, z G, z | E,2 G, z G, z | %175
 E,2 G, z G, z | D,2 [C,F,C]2 z2 | [B,,,B,,] z z4 | [F,,,F,,] z z4 | [B,,,B,,] z z4 | %180
 [F,,,F,,] z z4 | [C,,C,] z z4 | [A,,,A,,] z z4 | [_A,,,_A,,] z z4 | [A,,,A,,] z z4 | %185
 [F,,,F,,] z z4 | [G,,,G,,] z z4 | [_A,,,_A,,] z z4 | [A,,,A,,] z z4 | [B,,,B,,] z z4 | %190
 [F,,,F,,] z z4 | [A,,,A,,] z z4 | [F,,,F,,] z z4 | [B,,,B,,] z z4 | [F,,,F,,] z z4 | %195
 [B,,,B,,] z z4 | [D,,D,] z z4 | [C,,C,] z z4 | [D,,D,] z z2 [_D,,_D,] z | [C,,C,] z z4 | %200
 [C,,C,] z z4 | [C,,C,] z z4 | [C,,C,] z z4 | [C,,C,] z z4 | [C,,C,] z z4 | [C,,C,] z z4 | %206
 [C,,C,] z z4 | F,, z z4 | z6 | z4 [D,,D,]2- | [D,,D,]2 [_D,,_D,]2 [C,,C,]2 | [B,,,B,,]2 z4 | %212
 [A,,F,]2 z4 | [B,,F,]2 z4 | [B,,,B,,] z [D,,D,] z [=E,,=E,] z | [F,,F,] z z4 | %216
 [F,,F,] z [G,,G,] z [A,,A,] z | [B,,B,] z z2 [D,,D,]2- | [D,,D,]2 [_D,,_D,]2 [C,,C,]2 | %219
 [B,,,B,,]2 z4 | [A,,F,]2 z4 | [B,,F,]2 z4 | [B,,,B,,] z [G,,,G,,] z [B,,,B,,] z | [C,,C,] z z4 | %224
 [C,,C,] z [D,,D,] z [=E,,=E,] z | [F,,F,] z z2 [D,,D,]2- | [D,,D,]2 [_D,,_D,]2 [C,,C,]2 | %227
 [B,,,B,,]2 z4 | [A,,F,]2 z4 | [B,,F,]2 z4 | [B,,,B,,] z [D,,D,] z [=E,,=E,] z | [F,,F,] z z4 | %232
 [F,,F,] z [G,,G,] z [A,,A,] z | [B,,B,] z z2 [D,,D,]2- | [D,,D,]2 [_D,,_D,]2 [C,,C,]2 | %235
 [B,,,B,,]2 z4 | [A,,F,]2 z4 | [B,,F,]2 z4 | [B,,,B,,] z [G,,,G,,] z [B,,,B,,] z | [C,,C,] z z4 | %240
 [C,,C,] z [D,,D,] z [=E,,=E,] z | [F,,F,]2 z2 F,,2 | G,,2 A,,2 B,,2 | C,2 D,2 E,2 | F,2 G,2 A,2 | %245
 [B,,,B,,] z z4 | [F,,,F,,] z z4 | [B,,,B,,] z z4 | [F,,,F,,] z z4 | [C,,C,] z z4 | %250
 [A,,,A,,] z z4 | [_A,,,_A,,] z z4 | [A,,,A,,] z z4 | [F,,,F,,] z z4 | [G,,,G,,] z z4 | %255
 [_A,,,_A,,] z z4 | [A,,,A,,] z z4 | [B,,,B,,] z z4 | [F,,,F,,] z z4 | [A,,,A,,] z z4 | %260
 [F,,,F,,] z z4 | [B,,,B,,] z z4 | [F,,,F,,] z z4 | [B,,,B,,] z z4 | [D,,D,] z z4 | [E,,E,] z z4 | %266
 [D,,D,] z z4 | [C,,C,] z z4 | z6 | z2 [E,,,E,,] z z2 | [=E,,,=E,,] z z2 [E,,,E,,] z | %271
 z2 [F,,,F,,] z z2 | [F,,,F,,] z z2 [F,,,F,,] z | z2 [F,,,F,,] z z2 | [F,,,F,,] z z2 [F,,F,] z | %275
 z2 [E,,E,] z z2 | [D,,D,] z z2 [C,,C,] z | z2 [F,,,F,,] z z2 | [F,,,F,,] z z2 [E,,E,] z | %279
 z2 [D,,D,] z z2 | [B,,,B,,] z z2 [D,,D,] z | z2 [E,,E,] z z2 | [=E,,=E,] z z2 [E,,E,] z | %283
 z2 [F,,,F,,] z z2 | [F,,,F,,] z z2 [F,,,F,,] z | z2 [F,,,F,,] z z2 | [F,,,F,,] z z2 [F,,,F,,] z | %287
 [B,,,B,,] z z4 | z4 [F,,,F,,]2 | [B,,,B,,]2 z4 | z4 [F,,,F,,]2 | %291
 [B,,,B,,]2 [F,,,F,,]2 [B,,,B,,]2 | [F,,,F,,]2 [B,,,B,,]2 [F,,,F,,]2 | %293
 [B,,,B,,]2 [F,,,F,,]2 [B,,,B,,]2 | [F,,,F,,]2 [B,,,B,,]2 [F,,,F,,]2 | [B,,,B,,]4 z2 | %296
 [B,,B,]4 z2 |[M:6/4] [B,,,B,,]4 z8 |] %298

